X: 35424
T: Rounding Malin Head
R: reel
M: 4/4
K: Edorian
E2B2 EBdB|edBc- cAdB|E2B2 EBdB|edBc- cAdB|
E2B2 EBdB|[M:6/4]edBc- cAed Bc-cA|1 [M:4/4]B/c/d cA AGFG:|2 B/c/d cA Bdfd||
e3B- BBeg|fdag gabg|eB~B2 Bdef|edBc- cAdB|
e2B2 Bdeg|fdag gag2|bafg- gefd|1 B/c/d cA Bdfd:|2 B/c/d cA AGFG||

